svg/home_lightning_bolt_outline.svg

<svg xmlns="http://www.w3.org/2000/svg" id="mdi-home-lightning-bolt-outline" viewBox="0 0 24 24"><path d="M5 20V12H2L12 3L22 12H19V20H5M12 5.69L7 10.19V18H17V10.19L12 5.69M11.5 18V14H9L12.5 7V11H15L11.5 18Z" /></svg>

<svg xmlns="http://www.w3.org/2000/svg" viewBox="0 0 24 24"><path d="M5 20v-8H2l10-9 10 9h-3v8zm7-14.31-5 4.5V18h10v-7.81zM11.5 18v-4H9l3.5-7v4H15z"/></svg>
